lib/flags/vi-virgin-islands-u-s.svg

<svg xmlns="http://www.w3.org/2000/svg" fill="none" aria-hidden="true" viewBox="0 0 42 30"><g id="Country=VI - Virgin Islands (U.S.), Size=sm (36x24)" filter="url(#filter0_dd_91_23950)"><g clip-path="url(#clip0_91_23950)"><g id="flag"><mask id="mask0_91_23950" width="36" height="24" x="3" y="2" maskUnits="userSpaceOnUse" style="mask-type:alpha"><rect id="mask" width="36" height="24" x="3" y="2" fill="white"/></mask><g mask="url(#mask0_91_23950)"><g id="contents"><path id="background" fill="#F7FCFF" fill-rule="evenodd" d="M3 2V26H39V2H3Z" clip-rule="evenodd"/><mask id="mask1_91_23950" width="36" height="24" x="3" y="2" maskUnits="userSpaceOnUse" style="mask-type:alpha"><path id="background_2" fill="white" fill-rule="evenodd" d="M3 2V26H39V2H3Z" clip-rule="evenodd"/></mask><g mask="url(#mask1_91_23950)"><g id="mark"><path id="Combined Shape" fill="#E8AA00" fill-rule="evenodd" d="M22.8027 10.2148C23.0749 10.3525 23.2382 10.7051 23.2382 10.7051H18.6392L18.9567 10.2148C18.9567 10.2148 18.6392 10.0867 18.7989 10.0867C18.9586 10.0867 19.4142 9.51861 19.4142 9.51861H19.2241C19.2241 9.51861 19.1263 9.37728 19.4142 9.37728C19.702 9.37728 19.9319 8.46282 19.9319 8.46282C19.9319 8.46282 20.1208 8.03497 19.6585 7.92699C19.1962 7.81901 18.6392 8.28467 18.6392 8.28467C18.6392 8.28467 18.7751 7.53967 18.9567 7.3783C19.0411 7.30331 19.1986 7.29139 19.343 7.28046C19.5094 7.26786 19.6585 7.25658 19.6585 7.15175C19.6585 6.9559 20.1997 6.80322 21.0844 6.80322C21.9691 6.80322 22.2905 7.74248 22.2905 7.92699C22.2905 8.1115 22.5931 9.0922 22.5931 9.0922C22.5931 9.0922 22.2905 9.0922 22.2905 9.21871C22.2905 9.34522 23.2382 9.89194 23.2382 9.89194C23.2382 9.89194 22.5305 10.0771 22.8027 10.2148ZM12.7488 8.39621L12.7488 8.39622C14.2934 8.80536 15.5405 9.13569 15.7042 9.13569C16.1526 9.13569 16.9962 10.1008 16.5744 10.507C16.1526 10.9132 16.0099 11.1506 16.2922 11.1506C16.5744 11.1506 17.998 10.8222 17.998 10.8222V14.594C17.998 14.594 16.6337 14.8818 16.2922 14.594C16.1268 14.4546 15.8746 14.4462 15.6584 14.4391C15.4282 14.4314 15.2388 14.4251 15.2388 14.2634C15.2388 13.9497 14.4527 13.9004 14.4527 13.9004C14.4527 13.9004 13.7252 13.6872 13.7252 13.4865C13.7252 13.2859 13.2491 12.7188 13.2491 12.7188C13.2491 12.7188 11.4347 11.8057 9.89206 10.8037C9.58041 10.6013 9.27241 10.4106 8.97752 10.228C7.81273 9.50675 6.85253 8.91219 6.67998 8.22299C5.87429 7.5138 5.56848 7.0815 6.12423 6.86953C6.47707 6.73495 10.0628 7.68474 12.7488 8.39621ZM17.4491 14.8319C17.4491 14.8319 16.8382 15.2061 16.1623 16.2079C15.8298 16.7008 15.8031 17.135 15.7837 17.4489C15.7638 17.7732 15.7517 17.9692 15.4189 17.9692C15.0304 17.9692 14.7486 18.0439 14.5192 18.1047C14.3618 18.1464 14.2291 18.1815 14.1036 18.1815C13.7952 18.1815 13.203 19.2164 13.4991 19.4559C13.7952 19.6953 15.0357 20.0771 15.0357 19.4559C15.0357 18.8347 15.3694 18.4818 15.9757 18.4818C16.582 18.4818 17.6657 18.1249 17.6657 17.342C17.6657 16.559 18.8474 16.6149 18.8474 16.6149L17.4491 14.8319ZM29.5063 8.39624C32.1923 7.68476 35.778 6.73497 36.1309 6.86955C36.6866 7.08152 36.3808 7.51383 35.5751 8.22302C35.4026 8.91221 34.4424 9.50677 33.2776 10.228L33.2775 10.228L33.2775 10.2281C32.9826 10.4106 32.6746 10.6013 32.363 10.8037C30.8204 11.8057 29.006 12.7188 29.006 12.7188C29.006 12.7188 28.5299 13.2859 28.5299 13.4865C28.5299 13.6872 27.8024 13.9004 27.8024 13.9004C27.8024 13.9004 27.0163 13.9497 27.0163 14.2634C27.0163 14.4252 26.8269 14.4314 26.5967 14.4391C26.3805 14.4462 26.1283 14.4546 25.9629 14.594C25.6214 14.8819 24.2571 14.594 24.2571 14.594V10.8223C24.2571 10.8223 25.6807 11.1506 25.9629 11.1506C26.2452 11.1506 26.1025 10.9133 25.6807 10.507C25.2589 10.1008 26.1025 9.13571 26.5509 9.13571C26.7146 9.13571 27.9616 8.80538 29.5062 8.39625L29.5063 8.39624ZM24.806 14.8319C24.806 14.8319 25.4169 15.2061 26.0927 16.2079C26.4252 16.7008 26.452 17.135 26.4713 17.4489C26.4913 17.7732 26.5034 17.9692 26.8362 17.9692C27.2246 17.9692 27.5065 18.0439 27.7359 18.1047C27.8933 18.1464 28.026 18.1815 28.1515 18.1815C28.4599 18.1815 29.052 19.2164 28.756 19.4559C28.4599 19.6953 27.2193 20.0771 27.2193 19.4559C27.2193 18.8347 26.8856 18.4818 26.2793 18.4818C25.673 18.4818 24.5893 18.1249 24.5893 17.342C24.5893 16.559 23.4077 16.6149 23.4077 16.6149L24.806 14.8319ZM18.2335 17.4423C18.2335 17.0974 18.9192 16.8373 18.9192 16.8373L20.9832 16.063C20.9832 16.063 20.9938 16.2377 21.0096 16.5276C21.0254 16.2377 21.036 16.063 21.036 16.063L23.1 16.8373C23.1 16.8373 23.7856 17.0974 23.7856 17.4423C23.7856 17.6152 24.0773 17.9208 24.3684 18.2257C24.6581 18.5294 24.9473 18.8323 24.9473 19.0029C24.9473 19.3038 24.1642 19.9806 23.6914 20.3892C23.6269 20.445 23.5682 20.4957 23.518 20.5398C23.4097 20.6351 23.2926 20.753 23.171 20.8756C22.8232 21.2261 22.4384 21.614 22.1155 21.614C21.8884 21.614 21.7049 21.7545 21.5291 21.8891C21.3674 22.0128 21.2123 22.1315 21.036 22.1315C21.0267 22.1315 21.0179 22.1276 21.0096 22.1201C21.0012 22.1276 20.9924 22.1315 20.9832 22.1315C20.8068 22.1315 20.6517 22.0128 20.4901 21.8891C20.3142 21.7545 20.1307 21.614 19.9036 21.614C19.5808 21.614 19.1959 21.2261 18.8481 20.8756C18.7265 20.753 18.6094 20.6351 18.5011 20.5398C18.451 20.4957 18.3922 20.445 18.3278 20.3892C17.8549 19.9806 17.0719 19.3038 17.0719 19.0029C17.0719 18.8323 17.361 18.5294 17.6508 18.2257L17.6508 18.2257C17.9418 17.9208 18.2335 17.6152 18.2335 17.4423Z" clip-rule="evenodd"/><path id="Combined Shape_2" fill="#46A000" fill-rule="evenodd" d="M10.8863 12.6734C10.9313 13.1361 11.0793 13.4089 11.0793 13.4089C11.0793 13.4089 11.3397 13.773 11.4874 13.7774C11.5633 13.9449 11.646 14.1167 11.7343 14.2917C12.1397 15.2518 12.6921 16.5133 13.2579 17.6623C13.2216 17.6378 13.1691 17.611 13.0974 17.5812C12.6242 17.3845 12.2844 17.362 12.2844 17.362C12.2844 17.362 11.65 17.3861 11.7155 17.546C11.781 17.706 12.5675 18.0534 12.8869 17.9501C12.9224 17.9386 12.9586 17.9275 12.9941 17.9166C13.1409 17.8716 13.2765 17.83 13.3141 17.776C13.3893 17.9275 13.4646 18.0768 13.5398 18.2228C13.0678 18.027 12.7291 18.0046 12.7291 18.0046C12.7291 18.0046 12.0947 18.0287 12.1602 18.1886C12.2257 18.3486 13.0122 18.696 13.3315 18.5927C13.3671 18.5812 13.4033 18.5701 13.4388 18.5592C13.5272 18.5321 13.6115 18.5062 13.6729 18.4781C14.2429 19.5585 14.7933 20.421 15.1861 20.6388H15.9787C15.9787 20.6388 15.2937 19.7781 14.4303 18.5733C14.6904 18.4093 15.0529 18.0468 15.0529 17.8189C15.0529 17.7852 15.0535 17.7512 15.0541 17.7178C15.0592 17.4518 15.0635 17.2253 14.7349 17.5168C14.365 17.8448 14.2251 18.1209 14.2251 18.1209C14.2251 18.1209 14.2082 18.1682 14.1895 18.2348C14.1202 18.1365 14.05 18.0364 13.9792 17.9348C14.2398 17.7727 14.6082 17.4061 14.6082 17.1763C14.6082 17.1426 14.6088 17.1086 14.6095 17.0753C14.6145 16.8092 14.6188 16.5827 14.2902 16.8742C13.9204 17.2022 13.7804 17.4784 13.7804 17.4784C13.7804 17.4784 13.7632 17.5267 13.7443 17.5943C13.6444 17.4484 13.544 17.2999 13.4436 17.1496C13.6981 17.0303 14.1635 16.5993 14.1635 16.341C14.1635 16.3073 14.1642 16.2733 14.1648 16.2399C14.1698 15.9739 14.1741 15.7474 13.8455 16.0389C13.4757 16.3669 13.3357 16.643 13.3357 16.643C13.3357 16.643 13.2939 16.7607 13.2688 16.886C13.1375 16.6862 13.0069 16.484 12.8786 16.2807C12.8825 16.2813 12.8866 16.2815 12.8909 16.2815C13.0824 16.2815 13.7187 15.7434 13.7187 15.4414C13.7187 15.4077 13.7193 15.3737 13.72 15.3403C13.725 15.0743 13.7293 14.8478 13.4007 15.1393C13.0309 15.4673 12.8909 15.7434 12.8909 15.7434C12.8909 15.7434 12.7968 16.008 12.8065 16.1661C12.6295 15.8834 12.4573 15.5992 12.2938 15.3176L12.2981 15.3177C12.4896 15.3177 13.1258 14.7796 13.1258 14.4775C13.1258 14.4438 13.1265 14.4098 13.1271 14.3765C13.1322 14.1104 13.1365 13.8839 12.8079 14.1754C12.438 14.5034 12.2981 14.7796 12.2981 14.7796C12.2981 14.7796 12.2132 15.0179 12.213 15.1774C12.0411 14.8768 11.8799 14.58 11.7343 14.2917C11.6561 14.1064 11.5834 13.9324 11.517 13.7726C11.5265 13.7689 11.5352 13.7631 11.543 13.7548C11.6661 13.6244 11.6114 12.8452 11.351 12.6511C11.322 12.6294 11.2931 12.6071 11.2648 12.5852C11.0388 12.4108 10.8463 12.2623 10.8863 12.6734ZM11.7662 13.857C11.7662 13.857 11.7915 13.555 12.0128 13.1343C12.2094 12.7605 12.2926 12.9747 12.3902 13.2262C12.4024 13.2577 12.4149 13.2899 12.4279 13.3215C12.5441 13.6054 12.1532 14.3045 11.9733 14.3627C11.7933 14.4209 11.7662 13.857 11.7662 13.857ZM12.6528 16.7459C12.1795 16.5491 11.8397 16.5267 11.8397 16.5267C11.8397 16.5267 11.2054 16.5508 11.2709 16.7107C11.3364 16.8707 12.1228 17.2181 12.4422 17.1148C12.4778 17.1033 12.5139 17.0922 12.5494 17.0813C12.8324 16.9945 13.0733 16.9206 12.6528 16.7459ZM11.3949 15.6271C11.3949 15.6271 11.7347 15.6496 12.208 15.8463C12.6285 16.021 12.3876 16.0949 12.1046 16.1817C12.0691 16.1926 12.033 16.2037 11.9974 16.2152C11.678 16.3185 10.8915 15.9711 10.826 15.8111C10.7606 15.6512 11.3949 15.6271 11.3949 15.6271ZM11.8374 14.9467C11.3642 14.75 11.0244 14.7275 11.0244 14.7275C11.0244 14.7275 10.39 14.7516 10.4555 14.9115C10.521 15.0715 11.3075 15.4189 11.6269 15.3156C11.6624 15.3041 11.6985 15.293 11.734 15.2821L11.7341 15.2821L11.7341 15.2821C12.017 15.1953 12.258 15.1214 11.8374 14.9467ZM10.8466 13.645C10.8466 13.645 11.1573 13.7694 11.5263 14.0981C11.8542 14.3902 11.5994 14.3864 11.3001 14.3819H11.3001C11.2626 14.3814 11.2244 14.3808 11.1865 14.3808C10.8466 14.3808 10.2413 13.8152 10.2413 13.645C10.2413 13.4748 10.8466 13.645 10.8466 13.645Z" clip-rule="evenodd"/><path id="Path 397" fill="#0093E1" fill-rule="evenodd" d="M35.2777 12.3384H32.8732C32.8732 12.3384 33.383 12.3384 33.439 12.7761C33.439 12.7761 33.4507 16.47 33.439 16.7602C33.4273 17.0505 32.8732 17.1492 32.8732 17.1492C32.8732 17.1492 35.7901 17.1571 35.2777 17.1492C34.7653 17.1413 34.6522 16.7602 34.6522 16.7602V12.7761C34.6522 12.4388 35.2777 12.3384 35.2777 12.3384ZM8.13569 16.8531C7.86352 16.2285 6.18311 12.4039 6.18311 12.4039H7.84668C7.55768 12.4039 7.45038 12.7309 7.45038 12.7309L8.61563 15.6842C8.61563 15.6842 9.74244 13.273 9.74244 12.8455C9.74244 12.4179 9.26943 12.4039 9.26943 12.4039H11.4383L10.9143 12.5595C10.9143 12.5595 9.17889 16.096 9.17889 16.8531C9.0962 17.0209 9.97788 17.1325 9.97788 17.1325H7.64892L8.13569 16.8531ZM28.0495 15.4564L29.3384 13.3455L29.3763 15.6942L28.977 15.579L28.694 17.1473L30.1193 14.7177L29.6447 14.5592L31.4091 12.8616L30.8082 15.1561L30.4664 14.8885L28.4452 18.2407L30.7012 15.943L30.2663 15.75L32.4941 14.4534L31.5242 16.5663L30.9831 16.22L28.694 18.7818L27.7444 18.4572L28.694 15.4564H28.0495ZM27.3053 19.4598H26.5927V19.9417H26.0316L24.4426 21.5801H25.3196L25.6243 22.5026L26.0316 22.1771V22.5026L26.8282 22.1771L27.5896 22.7631L28.1579 20.5102L27.7754 20.2606L27.9719 20.1079L27.7754 19.4598H27.3053Z" clip-rule="evenodd"/><g id="main"><path id="Rectangle 105" fill="#F7FCFF" fill-rule="evenodd" d="M16.8864 10.0127C16.8864 10.0127 17.9333 10.6553 18.9802 10.6553C20.0271 10.6553 21.074 10.0127 21.074 10.0127C21.074 10.0127 22.121 10.6553 23.1679 10.6553C24.2148 10.6553 25.2617 10.0127 25.2617 10.0127V12.9136C25.2617 15.913 21.074 18.2376 21.074 18.2376C21.074 18.2376 16.6836 16.1032 16.8864 12.878V10.0127Z" clip-rule="evenodd"/><mask id="mask2_91_23950" width="10" height="9" x="16" y="10" maskUnits="userSpaceOnUse" style="mask-type:alpha"><path id="Rectangle 105_2" fill="white" fill-rule="evenodd" d="M16.8864 10.0127C16.8864 10.0127 17.9333 10.6553 18.9802 10.6553C20.0271 10.6553 21.074 10.0127 21.074 10.0127C21.074 10.0127 22.121 10.6553 23.1679 10.6553C24.2148 10.6553 25.2617 10.0127 25.2617 10.0127V12.9136C25.2617 15.913 21.074 18.2376 21.074 18.2376C21.074 18.2376 16.6836 16.1032 16.8864 12.878V10.0127Z" clip-rule="evenodd"/></mask><g mask="url(#mask2_91_23950)"><path id="Rectangle 107" fill="#2E42A5" fill-rule="evenodd" d="M16.5898 9.81982H25.4098V12.8399H16.5898V9.81982Z" clip-rule="evenodd"/><path id="Combined Shape_3" fill="#AF0100" fill-rule="evenodd" d="M18.2949 12.8398H17.5537V18.9443H18.2949V12.8398ZM19.5549 12.8398H18.8137V18.9443H19.5549V12.8398ZM20.0737 12.8398H20.8149V18.9443H20.0737V12.8398ZM22.0749 12.8398H21.3337V18.9443H22.0749V12.8398ZM22.5937 12.8398H23.3349V18.9443H22.5937V12.8398ZM24.5949 12.8398H23.8537V18.9443H24.5949V12.8398Z" clip-rule="evenodd"/></g></g></g></g></g></g></g></g></g><defs><filter id="filter0_dd_91_23950" width="42" height="30" x="0" y="0" color-interpolation-filters="sRGB" filterUnits="userSpaceOnUse"><feFlood flood-opacity="0" result="BackgroundImageFix"/><feColorMatrix in="SourceAlpha" result="hardAlpha" values="0 0 0 0 0 0 0 0 0 0 0 0 0 0 0 0 0 0 127 0"/><feOffset dy="1"/><feGaussianBlur stdDeviation="1"/><feColorMatrix values="0 0 0 0 0.0627451 0 0 0 0 0.0941176 0 0 0 0 0.156863 0 0 0 0.06 0"/><feBlend in2="BackgroundImageFix" result="effect1_dropShadow_91_23950"/><feColorMatrix in="SourceAlpha" result="hardAlpha" values="0 0 0 0 0 0 0 0 0 0 0 0 0 0 0 0 0 0 127 0"/><feOffset dy="1"/><feGaussianBlur stdDeviation="1.5"/><feColorMatrix values="0 0 0 0 0.0627451 0 0 0 0 0.0941176 0 0 0 0 0.156863 0 0 0 0.1 0"/><feBlend in2="effect1_dropShadow_91_23950" result="effect2_dropShadow_91_23950"/><feBlend in="SourceGraphic" in2="effect2_dropShadow_91_23950" result="shape"/></filter><clipPath id="clip0_91_23950"><rect width="36" height="24" x="3" y="2" fill="white" rx="2"/></clipPath></defs></svg>

<svg xmlns="http://www.w3.org/2000/svg" fill="none" aria-hidden="true" viewBox="0 0 42 30"><g filter="url(#a)"><g clip-path="url(#b)"><mask id="c" width="36" height="24" x="3" y="2" maskUnits="userSpaceOnUse" style="mask-type:alpha"><path fill="#fff" d="M3 2h36v24H3z"/></mask><g mask="url(#c)"><path fill="#F7FCFF" fill-rule="evenodd" d="M3 2v24h36V2H3Z" clip-rule="evenodd"/><mask id="d" width="36" height="24" x="3" y="2" maskUnits="userSpaceOnUse" style="mask-type:alpha"><path fill="#fff" fill-rule="evenodd" d="M3 2v24h36V2H3Z" clip-rule="evenodd"/></mask><g mask="url(#d)"><path fill="#E8AA00" fill-rule="evenodd" d="M22.803 10.215c.272.137.435.49.435.49H18.64l.318-.49s-.318-.128-.158-.128.615-.568.615-.568h-.19s-.098-.142.19-.142c.288 0 .518-.914.518-.914s.189-.428-.273-.536c-.463-.108-1.02.358-1.02.358s.136-.745.318-.907c.084-.075.242-.087.386-.098.166-.012.316-.023.316-.128 0-.196.54-.349 1.425-.349s1.207.94 1.207 1.124c0 .184.302 1.165.302 1.165s-.302 0-.302.127c0 .126.947.673.947.673s-.707.185-.435.323ZM12.749 8.396c1.544.41 2.791.74 2.955.74.449 0 1.292.965.87 1.371-.421.406-.564.644-.282.644s1.706-.329 1.706-.329v3.772s-1.364.288-1.706 0c-.165-.14-.417-.148-.634-.155-.23-.008-.42-.014-.42-.176 0-.313-.785-.363-.785-.363s-.728-.213-.728-.414c0-.2-.476-.767-.476-.767s-1.814-.913-3.357-1.915c-.312-.203-.62-.393-.914-.576-1.165-.721-2.125-1.316-2.298-2.005-.806-.71-1.112-1.142-.556-1.353.353-.135 3.939.815 6.625 1.526Zm4.7 6.436s-.61.374-1.287 1.376c-.332.493-.359.927-.378 1.24-.02.325-.032.521-.365.521-.389 0-.67.075-.9.136a1.69 1.69 0 0 1-.415.076c-.309 0-.901 1.035-.605 1.275.296.24 1.537.621 1.537 0s.333-.974.94-.974c.606 0 1.69-.357 1.69-1.14 0-.783 1.181-.727 1.181-.727l-1.398-1.783Zm12.057-6.436c2.686-.711 6.272-1.661 6.625-1.526.556.212.25.644-.556 1.353-.172.69-1.133 1.284-2.297 2.005a48.97 48.97 0 0 0-.915.576c-1.543 1.002-3.357 1.915-3.357 1.915s-.476.567-.476.768c0 .2-.728.413-.728.413s-.786.05-.786.363c0 .162-.19.168-.42.176-.215.007-.468.016-.633.155-.342.288-1.706 0-1.706 0v-3.772s1.424.329 1.706.329c.282 0 .14-.238-.282-.644s.421-1.371.87-1.371c.164 0 1.41-.33 2.955-.74Zm-4.7 6.436s.61.374 1.287 1.376c.332.493.359.927.378 1.24.02.325.032.521.365.521.389 0 .67.075.9.136.157.041.29.076.415.076.309 0 .901 1.035.605 1.275-.296.24-1.537.621-1.537 0s-.333-.974-.94-.974c-.606 0-1.69-.357-1.69-1.14 0-.783-1.181-.727-1.181-.727l1.398-1.783Zm-6.573 2.61c0-.345.686-.605.686-.605l2.064-.774.027.465c.015-.29.026-.465.026-.465l2.064.774s.686.26.686.605c0 .173.291.479.582.784.29.303.58.606.58.777 0 .3-.784.978-1.257 1.386l-.173.15a7.483 7.483 0 0 0-.347.337c-.348.35-.733.738-1.055.738-.228 0-.411.14-.587.275-.162.124-.317.242-.493.242a.04.04 0 0 1-.026-.01.04.04 0 0 1-.027.01c-.176 0-.331-.118-.493-.242-.176-.134-.36-.275-.586-.275-.323 0-.708-.388-1.056-.738a7.483 7.483 0 0 0-.347-.336l-.173-.15c-.473-.41-1.256-1.086-1.256-1.387 0-.17.289-.474.579-.777.29-.305.582-.61.582-.784Z" clip-rule="evenodd"/><path fill="#46A000" fill-rule="evenodd" d="M10.886 12.673c.045.463.193.736.193.736s.26.364.408.368c.076.168.159.34.247.515.406.96.958 2.221 1.524 3.37a.942.942 0 0 0-.16-.08c-.474-.198-.814-.22-.814-.22s-.634.024-.569.184c.066.16.853.507 1.172.404l.107-.033c.147-.045.283-.087.32-.141.075.151.15.3.226.447a2.832 2.832 0 0 0-.81-.218s-.635.024-.57.184c.066.16.852.507 1.171.404l.108-.034c.088-.027.172-.053.234-.08.57 1.08 1.12 1.942 1.513 2.16h.793s-.685-.86-1.549-2.066c.26-.164.623-.526.623-.754l.001-.101c.005-.266.01-.493-.32-.201-.369.328-.509.604-.509.604s-.017.047-.035.114a67.18 67.18 0 0 1-.21-.3c.26-.162.628-.529.628-.759 0-.033 0-.067.002-.1.005-.267.009-.493-.32-.202-.37.328-.51.604-.51.604s-.017.049-.036.116c-.1-.146-.2-.294-.3-.444.254-.12.72-.55.72-.809v-.101c.006-.266.01-.493-.319-.201-.37.328-.51.604-.51.604s-.041.118-.066.243a34.63 34.63 0 0 1-.39-.605h.012c.191 0 .828-.538.828-.84l.001-.1c.005-.267.01-.493-.32-.202-.37.328-.51.604-.51.604s-.093.265-.084.423a32.4 32.4 0 0 1-.512-.848h.004c.192 0 .828-.538.828-.84l.001-.101c.005-.267.01-.493-.32-.202-.369.328-.509.605-.509.605s-.085.238-.085.397a19.54 19.54 0 0 1-.479-.885l-.217-.52a.07.07 0 0 0 .026-.017c.123-.13.068-.91-.192-1.104a6.72 6.72 0 0 1-.086-.066c-.226-.174-.419-.323-.379.088Zm.88 1.184s.025-.302.247-.723c.196-.373.28-.16.377.092l.038.095c.116.284-.275.984-.455 1.042-.18.058-.207-.506-.207-.506Zm.887 2.889a2.832 2.832 0 0 0-.813-.22s-.635.025-.57.185c.066.16.853.507 1.172.404l.107-.034c.283-.087.524-.16.104-.335Zm-1.258-1.119s.34.023.813.22c.42.174.18.248-.103.335l-.108.033c-.319.104-1.105-.244-1.171-.404-.065-.16.569-.184.569-.184Zm.442-.68c-.473-.197-.813-.22-.813-.22s-.634.025-.568.184c.065.16.851.508 1.17.405a7.33 7.33 0 0 1 .108-.034c.283-.087.524-.16.103-.335Zm-.99-1.302s.31.124.68.453c.327.292.072.288-.227.284l-.114-.001c-.34 0-.945-.566-.945-.736 0-.17.606 0 .606 0Z" clip-rule="evenodd"/><path fill="#0093E1" fill-rule="evenodd" d="M35.278 12.338h-2.405s.51 0 .566.438c0 0 .012 3.694 0 3.984-.012.29-.566.39-.566.39s2.917.007 2.405 0c-.513-.009-.626-.39-.626-.39v-3.984c0-.337.626-.438.626-.438ZM8.136 16.853c-.272-.625-1.953-4.45-1.953-4.45h1.664c-.29 0-.397.328-.397.328l1.166 2.953s1.126-2.411 1.126-2.838c0-.428-.473-.442-.473-.442h2.17l-.525.155S9.18 16.096 9.18 16.854c-.083.168.799.28.799.28h-2.33l.488-.28Zm19.913-1.397 1.29-2.11.037 2.348-.399-.115-.283 1.568 1.425-2.43-.474-.158 1.764-1.697-.6 2.294-.343-.268-2.02 3.353 2.255-2.298-.435-.193 2.228-1.297-.97 2.113-.54-.346-2.29 2.562-.95-.325.95-3h-.645Zm-.744 4.004h-.712v.482h-.561l-1.59 1.638h.878l.304.923.408-.326v.326l.796-.326.762.586.568-2.253-.383-.25.197-.152-.197-.648h-.47Z" clip-rule="evenodd"/><path fill="#F7FCFF" fill-rule="evenodd" d="M16.886 10.013s1.047.642 2.094.642 2.094-.642 2.094-.642 1.047.642 2.094.642 2.094-.642 2.094-.642v2.9c0 3-4.188 5.325-4.188 5.325s-4.39-2.135-4.188-5.36v-2.865Z" clip-rule="evenodd"/><mask id="e" width="10" height="9" x="16" y="10" maskUnits="userSpaceOnUse" style="mask-type:alpha"><path fill="#fff" fill-rule="evenodd" d="M16.886 10.013s1.047.642 2.094.642 2.094-.642 2.094-.642 1.047.642 2.094.642 2.094-.642 2.094-.642v2.9c0 3-4.188 5.325-4.188 5.325s-4.39-2.135-4.188-5.36v-2.865Z" clip-rule="evenodd"/></mask><g fill-rule="evenodd" clip-rule="evenodd" mask="url(#e)"><path fill="#2E42A5" d="M16.59 9.82h8.82v3.02h-8.82V9.82Z"/><path fill="#AF0100" d="M18.295 12.84h-.741v6.104h.74V12.84Zm1.26 0h-.741v6.104h.74V12.84Zm.519 0h.74v6.104h-.74V12.84Zm2 0h-.74v6.104h.74V12.84Zm.52 0h.74v6.104h-.74V12.84Zm2 0h-.74v6.104h.74V12.84Z"/></g></g></g></g></g><defs><clipPath id="b"><rect width="36" height="24" x="3" y="2" fill="#fff" rx="2"/></clipPath><filter id="a" width="42" height="30" x="0" y="0" color-interpolation-filters="sRGB" filterUnits="userSpaceOnUse"><feFlood flood-opacity="0" result="BackgroundImageFix"/><feColorMatrix in="SourceAlpha" result="hardAlpha" values="0 0 0 0 0 0 0 0 0 0 0 0 0 0 0 0 0 0 127 0"/><feOffset dy="1"/><feGaussianBlur stdDeviation="1"/><feColorMatrix values="0 0 0 0 0.0627451 0 0 0 0 0.0941176 0 0 0 0 0.156863 0 0 0 0.06 0"/><feBlend in2="BackgroundImageFix" result="effect1_dropShadow_91_23950"/><feColorMatrix in="SourceAlpha" result="hardAlpha" values="0 0 0 0 0 0 0 0 0 0 0 0 0 0 0 0 0 0 127 0"/><feOffset dy="1"/><feGaussianBlur stdDeviation="1.5"/><feColorMatrix values="0 0 0 0 0.0627451 0 0 0 0 0.0941176 0 0 0 0 0.156863 0 0 0 0.1 0"/><feBlend in2="effect1_dropShadow_91_23950" result="effect2_dropShadow_91_23950"/><feBlend in="SourceGraphic" in2="effect2_dropShadow_91_23950" result="shape"/></filter></defs></svg>
